X: 17
T: When Sick Is It Tea That You Want?
Z: Pipolidz
S: https://thesession.org/tunes/427#setting54308
R: jig
M: 6/8
L: 1/8
K: Dmaj
|:A2d dcB|AdB AFG|A2d cde|fdB BAF|
A2d fdB|AdB AFG|A2d cde|1 fdc dcB:|2 fdc dfg||
|:afd dcd|BGG G2g|bge e2d|cAA AFG|
A2d fdB|AdB AFG|A2d cde|1 fdc dfg:|2 fdc dcB||

%-------------------- TUNE SEPARATOR --------------------%

